icons/arrow-fullscreen.svg

<svg width="24" height="24" viewBox="0 0 24 24" fill="none" xmlns="http://www.w3.org/2000/svg">
<path fill-rule="evenodd" clip-rule="evenodd" d="M16.9303 3.96967C17.2232 4.26256 17.2232 4.73744 16.9303 5.03033L10.9303 11.0303C10.6374 11.3232 10.1625 11.3232 9.86963 11.0303C9.57674 10.7374 9.57674 10.2626 9.86963 9.96967L15.8696 3.96967C16.1625 3.67678 16.6374 3.67678 16.9303 3.96967Z" fill="black"/>
<path fill-rule="evenodd" clip-rule="evenodd" d="M12.25 4C12.25 3.58579 12.5858 3.25 13 3.25H16.4C16.7204 3.25 17.0457 3.36009 17.2928 3.60717C17.5399 3.85425 17.65 4.17956 17.65 4.5V7.9C17.65 8.31421 17.3142 8.65 16.9 8.65C16.4858 8.65 16.15 8.31421 16.15 7.9V4.75H13C12.5858 4.75 12.25 4.41421 12.25 4Z" fill="black"/>
<path fill-rule="evenodd" clip-rule="evenodd" d="M9.79999 6.44995C10.2142 6.44995 10.55 6.78574 10.55 7.19995V10.35H13.7C14.1142 10.35 14.45 10.6857 14.45 11.1C14.45 11.5142 14.1142 11.85 13.7 11.85H10.3C9.97955 11.85 9.65424 11.7399 9.40716 11.4928C9.16007 11.2457 9.04999 10.9204 9.04999 10.6V7.19995C9.04999 6.78574 9.38577 6.44995 9.79999 6.44995Z" fill="black"/>
<path fill-rule="evenodd" clip-rule="evenodd" d="M9 3.75C6.11421 3.75 3.75 6.11421 3.75 9V15C3.75 17.8858 6.11421 20.25 9 20.25H15C17.8858 20.25 20.25 17.8858 20.25 15V9C20.25 8.58579 20.5858 8.25 21 8.25C21.4142 8.25 21.75 8.58579 21.75 9V15C21.75 18.7142 18.7142 21.75 15 21.75H9C5.28579 21.75 2.25 18.7142 2.25 15V9C2.25 5.28579 5.28579 2.25 9 2.25C9.41421 2.25 9.75 2.58579 9.75 3C9.75 3.41421 9.41421 3.75 9 3.75Z" fill="black"/>
</svg>

<svg xmlns="http://www.w3.org/2000/svg" fill="none" viewBox="0 0 24 24">
  <path fill="#000" fill-rule="evenodd" d="M16.93 3.97a.75.75 0 0 1 0 1.06l-6 6a.75.75 0 0 1-1.06-1.06l6-6a.75.75 0 0 1 1.06 0Z" clip-rule="evenodd"/>
  <path fill="#000" fill-rule="evenodd" d="M12.25 4a.75.75 0 0 1 .75-.75h3.4c.32 0 .646.11.893.357s.357.573.357.893v3.4a.75.75 0 0 1-1.5 0V4.75H13a.75.75 0 0 1-.75-.75ZM9.8 6.45a.75.75 0 0 1 .75.75v3.15h3.15a.75.75 0 1 1 0 1.5h-3.4c-.32 0-.646-.11-.893-.357a1.249 1.249 0 0 1-.357-.893V7.2a.75.75 0 0 1 .75-.75Z" clip-rule="evenodd"/>
  <path fill="#000" fill-rule="evenodd" d="M9 3.75C6.114 3.75 3.75 6.114 3.75 9v6c0 2.886 2.364 5.25 5.25 5.25h6c2.886 0 5.25-2.364 5.25-5.25V9a.75.75 0 0 1 1.5 0v6c0 3.714-3.036 6.75-6.75 6.75H9c-3.714 0-6.75-3.036-6.75-6.75V9c0-3.714 3.036-6.75 6.75-6.75a.75.75 0 0 1 0 1.5Z" clip-rule="evenodd"/>
</svg>
